X: 07032
T: ERIN'S REEL
C: Bob McQuillen 18 Mar 89
B: Bob's Note Book 7 #32
%R: reel
Z: 2021 John Chambers <jc:trillian.mit.edu>
M: C
L: 1/8
K: D
FG \
| AFGB A2AG | FDFA d2fe | dBAF DFAF | G2E2 E2FG |\
| AFGB ABAG | FDFA dBAF | Adfa geag | f2d2 d2 :|
|: de \
| f2df edce | fdAF DFAd | Bdcd Afgf | edcB A2de |\
| fafd edce | fdAF DFAd | Bdgf edcB | A2d2 d2 :|
%%begintext align
%% Here's a tune for fiddler
%% Erin Shrader of Olympia, WA. and Nelson, N.H.,
%% where I past played with her. We really had
%% a good set together that last time in Nelson - I
%% hope you like this tune, Erin!
%%endtext

%%sep 1 1 500

%%sep 1 1 500

